public/img/decorations/deco-blob-16.svg

<svg width="68" height="76" viewBox="0 0 68 76" fill="none" xmlns="http://www.w3.org/2000/svg">
<path d="M30.8441 71.856C32.4341 71.423 34.0321 72.031 35.7661 70.91C35.1801 70.497 34.7911 69.988 34.3831 69.972C28.1171 69.711 23.1081 66.128 17.6801 63.687C14.3321 62.182 11.0531 60.52 7.79906 58.822C6.32406 58.051 4.91205 57.116 3.60005 56.091C0.754052 53.866 0.370047 51.31 1.83205 48.027C3.80305 43.602 6.51603 39.66 9.45103 35.875C13.2671 30.955 17.0761 26 21.2711 21.407C24.4901 17.882 28.3451 14.946 31.8301 11.654C34.7521 8.89397 37.8631 6.40099 41.3611 4.43599C43.5171 3.22599 45.7281 2.06898 48.0191 1.14998C51.7491 -0.347024 55.3331 0.650981 57.9881 3.66798C58.3041 4.02798 58.6091 4.39897 58.9431 4.74397C62.3301 8.24397 63.9221 12.431 64.0881 17.296C64.1861 20.08 64.7151 22.849 65.0291 25.627C65.2441 27.53 65.4331 29.436 65.6151 31.343C65.9781 35.16 66.3121 38.979 66.6911 42.795C67.3361 49.317 67.9061 55.856 67.4291 62.402C67.2221 65.242 66.6341 68.115 65.7751 70.831C64.6731 74.306 62.2911 75.898 58.1341 75.807C51.5211 75.661 44.8631 75.385 38.3681 73.825C35.8501 73.217 33.3521 72.515 30.8441 71.856ZM42.5881 55.002C42.7761 54.941 42.9651 54.88 43.1541 54.818C43.1091 54.698 43.0661 54.476 43.0171 54.474C42.8241 54.466 42.6301 54.529 42.4371 54.566C42.4801 54.689 42.5231 54.812 42.5881 55.002Z" fill="black"/>
</svg>

<svg width="68" height="76" fill="none" xmlns="http://www.w3.org/2000/svg"><path d="M30.844 71.856c1.59-.433 3.188.175 4.922-.946-.586-.413-.975-.922-1.383-.938-6.266-.261-11.275-3.844-16.703-6.285-3.348-1.505-6.627-3.167-9.88-4.865a27.768 27.768 0 01-4.2-2.731C.754 53.866.37 51.31 1.832 48.027c1.971-4.425 4.684-8.367 7.619-12.152 3.816-4.92 7.625-9.875 11.82-14.468 3.22-3.525 7.074-6.461 10.56-9.753 2.921-2.76 6.032-5.253 9.53-7.218 2.156-1.21 4.367-2.367 6.658-3.286 3.73-1.497 7.314-.499 9.97 2.518.315.36.62.731.954 1.076 3.387 3.5 4.98 7.687 5.145 12.552.098 2.784.627 5.553.941 8.331.215 1.903.404 3.809.586 5.716.363 3.817.697 7.636 1.076 11.452.645 6.522 1.215 13.061.738 19.607-.207 2.84-.795 5.713-1.654 8.429-1.102 3.475-3.484 5.067-7.64 4.976-6.614-.146-13.272-.422-19.767-1.982-2.518-.608-5.016-1.31-7.524-1.969zm11.744-16.854l.566-.184c-.045-.12-.088-.342-.137-.344-.193-.008-.387.055-.58.092l.151.436z" fill="#000"/></svg>
